X:1
T:Title
%%score ( 1 2 ) ( 3 4 )
L:1/8
M:4/4
K:Bb
V:1 treble nm="Choir Aahs, Unnamed-000"
V:2 treble 
V:3 bass nm="Choir Aahs, Unnamed-001"
V:4 bass 
V:1
 [DB][DB][Fd][Fd] [Fd][Fd] [DB]2 | [FB][FB][GB][GB] [GB][EG] [DF]2 | %2
w: By~Charlie~D.~Tillman,~circa~1893 * * * * * *||
 [DF][CE][B,D][DF] [DB][Fd][=Ec][EG] | [=EA][EB] [_Ec]6 | [DB][DB][Fd][Fd] [Fd][Fd] [DB]2 | %5
w: |||
 [FB][FB][GB][GB] [GB][EG] [DF]2 | [DF][CE][B,D][DF] [FB][Fd][Fc][EG] | [EA][Ec] [DB]6 | z2 A6 | %9
w: ||||
 z2 B6 | [DB][FA][EG][EA] [FB][Fd][=Ec][EG] | [FA][GB] [Ac]6 | [DB][Ec][Fd][Fd] [Fd][Fd] [DB]2 | %13
w: ||||
 [FB][FB][GB][GB] [GB][EG] [DF]2 | [DF][CE][B,D][DF] [FB][Fd][Fc][EG] | [EA][Ec] [DB]6 |] %16
w: |||
V:2
 x8 | x8 | x8 | x8 | x8 | x8 | x8 | x8 | FB z2 EE E2 | Fc z2 DD D2 | x8 | x8 | x8 | x8 | x8 | x8 |] %16
V:3
 [B,,F,][B,,F,][B,,B,][B,,B,] [B,,B,][B,,B,] [B,,F,]2 | %1
 [D,B,][D,B,][E,E][E,E] [E,E][E,B,] [B,,B,]2 | %2
 [B,,B,][B,,F,][B,,F,][B,,B,] [B,,B,][B,,B,][C,B,][C,C] | z2 A,6 | %4
 [B,,F,][B,,F,][B,,B,][B,,B,] [B,,B,][B,,B,] [B,,F,]2 | %5
 [D,B,][D,B,][E,E][E,E] [E,E][E,B,] [B,,B,]2 | %6
 [B,,B,][B,,F,][B,,F,][B,,B,] [D,B,][B,,B,][F,A,][F,B,] | [F,C]F, [B,,F,]6 | z4 [F,C][F,C] [F,C]2 | %9
 z4 [B,,F,][B,,F,] [B,,F,]2 | [B,,F,][D,B,][E,B,][E,C] [D,B,][B,,B,][C,G,][C,C] | %11
 [C,C][C,C] F,2 A,C E2 | B,B,B,B, B,B, B,2 | [D,B,][D,B,][E,E][E,E] [E,E][E,B,] [B,,B,]2 | %14
 [B,,B,][B,,F,][B,,F,][B,,B,] [D,B,][B,,B,][F,A,][F,B,] | [F,C]F, [B,,F,]6 |] %16
V:4
 x8 | x8 | x8 | [C,C][C,B,] F,2 E,2 D,2 | x8 | x8 | x8 | x8 | x8 | x8 | x8 | x8 | x8 | x8 | x8 | %15
 x8 |] %16

